X:23009
T:Woodland Flowers
T:Mrs Kenny's Barn Dance
R:Hornpipe
C:Felix Burns 1864-1920
O:Scotland
Z:Paul Hardy's Session Tunebook 2015 (see www.paulhardy.net). Creative Commons cc by-nc-sa licenced.
M:4/4
L:1/8
Q:1/4=130
K:C
(3EF^F|"C"Gedc Gedc|"Dm"A2 df a3 g|a2 ge f2 AB|"C"(3cBc (3ecA G2 (3EF^F|
"C"Gedc Gedc|"Dm"A2 df a3 g|a2 ge f2 AB|"C"(3cBc e2 c2:|
K:G
c2|"G"(3bag dg (3bag dg|"Am"(3c'ba ea (3c'ba ea|"D"fd^cd e2 f2|"G"(3gba (3gfe d2 B2|
"G"(3bag dg (3bag dg|"Am"(3c'ba ea (3c'ba ea|"D"fd^cd e2 f2|"G"g2 f2 g4||
"Em"BABd "D7"cBce|"G"d2 g2 g3 f|"Am"edeg agfe|"D"d6 (3edc|
"G"B2 g2 g2 (3dcB|"D"A2 f2 f3 b|"Am"aeeg "D7"fefa|"G"(3gfg b2 g4|]

